svg/Outline/trophy.svg

<svg viewBox="0 0 24 24" xmlns="http://www.w3.org/2000/svg" width="24" height="24"><path fill-rule="evenodd" d="M17.24 1q.45.06.8.3l.1.08.12.11.11.12q.32.42.37.92v1.03c0 .1.1.2.2.2h1.66a2.2 2.2 0 0 1 1.97 2.12l.03.89c0 .86-.06 1.81-.42 2.65l-.1.22q-.42.83-1.3 1.37l-.26.14q-.68.34-1.59.46l-.26.02a.2.2 0 0 0-.14.09l-.03.05a6.5 6.5 0 0 1-1.97 2.75l-.36.3a9 9 0 0 1-3.3 1.57.2.2 0 0 0-.16.2v3.97q.02.18.2.2h2.76c.46.06.82.45.82.92s-.36.87-.82.91l-.1.01H8.02a.9.9 0 0 1-.91-.92c0-.5.4-.92.91-.92h2.67a.2.2 0 0 0 .2-.2V16.6a.2.2 0 0 0-.16-.2c-.96-.2-2-.67-2.92-1.3l-.38-.27a6.7 6.7 0 0 1-2.34-3.05.2.2 0 0 0-.11-.12l-.06-.01-.32-.04a5 5 0 0 1-1.66-.52l-.23-.13a3.4 3.4 0 0 1-1.37-1.7l-.1-.3A8 8 0 0 1 1 6.72l.02-.54.02-.53.02-.5v-.47q0-.37.27-.65l.07-.06q.25-.2.58-.2h2.67a.2.2 0 0 0 .2-.2V2.52q.07-.58.48-1.02l.13-.1q.46-.38 1.05-.39L17.07 1zM6.87 2.86a.2.2 0 0 0-.2.2v7.43c.09 1.05.8 2.06 1.86 2.87l.2.15a6 6 0 0 0 2.9 1.18h.32a6.4 6.4 0 0 0 3.12-1.33l.2-.16c.95-.78 1.57-1.73 1.65-2.7l.01-.21V3.04a.2.2 0 0 0-.2-.2zM3.06 5.59a.2.2 0 0 0-.2.16v.04l-.04.95A6 6 0 0 0 3 8.42l.05.16q.2.52.65.82l.17.1q.3.15.74.24a.2.2 0 0 0 .24-.2V5.79a.2.2 0 0 0-.2-.2zm15.89 0a.2.2 0 0 0-.2.2v3.75a.2.2 0 0 0 .24.2q.45-.09.73-.24l.13-.07q.43-.26.61-.64l.06-.13q.19-.46.23-1.07.04-.52.02-1.18l-.02-.45-.01-.07-.06-.14-.05-.05-.06-.05-.12-.05z" clip-rule="evenodd"/></svg>

<svg viewBox="0 0 24 24" xmlns="http://www.w3.org/2000/svg" width="24" height="24"><path fill-rule="evenodd" d="M17.24 1Q17.69 1.06 18.04 1.3L18.37 1.61Q18.69 2.03 18.74 2.53L18.74 3.56C18.74 3.66 18.84 3.76 18.94 3.76L20.6 3.76A2.2 2.2 0 0 1 22.57 5.88L22.6 6.77C22.6 7.63 22.54 8.58 22.18 9.42L22.08 9.64Q21.66 10.47 20.78 11.01L20.52 11.15Q19.84 11.49 18.93 11.61L18.67 11.63A.2 .2 0 0 0 18.53 11.72L18.5 11.77A6.5 6.5 0 0 1 16.53 14.52L16.17 14.82A9 9 0 0 1 12.87 16.39A.2 .2 0 0 0 12.71 16.59L12.71 20.56Q12.73 20.74 12.91 20.76L15.67 20.76C16.13 20.82 16.49 21.21 16.49 21.68C16.49 22.15 16.13 22.55 15.67 22.59L8.02 22.6A.9 .9 0 0 1 7.11 21.68C7.11 21.18 7.51 20.76 8.02 20.76L10.69 20.76A.2 .2 0 0 0 10.89 20.56L10.89 16.6A.2 .2 0 0 0 10.73 16.4C9.77 16.2 8.73 15.73 7.81 15.1L7.43 14.83A6.7 6.7 0 0 1 5.09 11.78A.2 .2 0 0 0 4.98 11.66L4.6 11.61A5 5 0 0 1 2.94 11.09L2.71 10.96A3.4 3.4 0 0 1 1.34 9.26L1.24 8.96A8 8 0 0 1 1 6.72L1.06 4.68Q1.06 4.31 1.33 4.03L1.4 3.97Q1.65 3.77 1.98 3.77L4.65 3.77A.2 .2 0 0 0 4.85 3.57L4.85 2.52Q4.92 1.94 5.33 1.5L5.46 1.4Q5.92 1.02 6.51 1.01L17.07 1ZM6.87 2.86A.2 .2 0 0 0 6.67 3.06L6.67 10.49C6.76 11.54 7.47 12.55 8.53 13.36L8.73 13.51A6 6 0 0 0 11.63 14.69L11.95 14.69A6.4 6.4 0 0 0 15.07 13.36L15.27 13.2C16.22 12.42 16.84 11.47 16.92 10.5L16.93 3.04A.2 .2 0 0 0 16.73 2.84ZM3.06 5.59A.2 .2 0 0 0 2.86 5.75L2.82 6.74A6 6 0 0 0 3 8.42L3.05 8.58Q3.25 9.1 3.7 9.4L3.87 9.5Q4.17 9.65 4.61 9.74A.2 .2 0 0 0 4.85 9.54L4.85 5.79A.2 .2 0 0 0 4.65 5.59ZM18.95 5.59A.2 .2 0 0 0 18.75 5.79L18.75 9.54A.2 .2 0 0 0 18.99 9.74Q19.44 9.65 19.72 9.5L19.85 9.43Q20.28 9.17 20.46 8.79L20.52 8.66Q20.71 8.2 20.75 7.59Q20.79 7.07 20.77 6.41L20.74 5.89L20.63 5.7L20.45 5.6Z" clip-rule="evenodd"/></svg>
